X:1
T:Cancelled!
T:John Prentice (Jack) Scholfield, 1918
T:Cancelled!
T:Public Domain
T:Public Domain
C:John Prentice (Jack) Scholfield, 1918
Z:Public Domain
%%score ( 1 2 ) ( 3 4 )
L:1/8
M:4/4
K:Bb
V:1 treble 
V:2 treble 
V:3 bass 
V:4 bass 
V:1
 [B,D][CE] | [DF]2 ([DB][Ec]) [Fd]3 [FB] | [Gc][GB][EG][EB] [DF]3 F | [=EB]2 [EG][EA] [EB]2 G2 | %4
w: 1.~When my|debt to * God was|rest- ing on my soul, And|trod the down- ward road,|
w: 2.~My ac-|count was * great, I|knew I could not pay, I|’neath the heav- y load;|
w: 3.~Grat- i-|tude to * Him has|turned my heart to praise, I’m|ful for gifts be- stowed;|
w: 4.~When I|stand a- * lone and|face the set- ting sun, And|ness ob- scures the road,|
 [Fc]6 [EF][EF] | [DF]2 ([DB][Ec]) [Fd]3 [FB] | [Gc][GB][EG][EB] [DF]2 [DB][FA] | %7
w: looked up to|Him who * died to|make men whole, And He can- celled|
w: sus paid my|debt, I * love Him|more each day, For He can- celled|
w: my song will|flow thro’ * all the|com- ing days, For He can- celled|
w: will guide me|home and * say to|me, “Well done,” For He can- celled|
 [EG] [EG]2 [Gc] [FB]2 [FA]2 | [FB]6 ||"^Refrain" [DB][EG] | [EA] [EA]2 [Ec] (FE)(AG) | %11
w: the debt I owed. *||||
w: the debt I owed. Je-|sus|can- celled|the debt I owed, * Je- *|
w: the debt I owed. *||||
w: the debt I owed. *||||
 (F2 G2 A2) [FB][Fc] | [Fd] [Fd]2 [Fc] [FB]2 [Ff]2 | (F2 =E2 _E2) [DF][DB] | %14
w: |||
w: ed * * the might-|load; Grace di- vine touched|my * * soul and|
w: |||
w: |||
 [Fd]2 [DB][Ec] [Fd]3 [FB] |!<(! [Gc]2 [Gd]2!<)! [Ge]2 [FA](G/E/) | [DF] [DB]2 [Ge] [Fd]2 [Ec]2 | %17
w: |||
w: me whole, When He can-|celled the debt I owed. *||
w: |||
w: |||
 [DB]6 |] %18
w: |
w: |
w: |
w: |
V:2
 x2 | x8 | x7 F | x6 G2 | x8 | x8 | x8 | x8 | x6 || x2 | x4 e2 e2 | e6 x2 | x8 | c6 x2 | x8 | %15
w: ||I|I||||||||||||
w: ||bowed|Je-|||||||sus lift-|y||made||
w: ||grate-|And||||||||||||
w: ||dark-|He||||||||||||
 x7 G | x8 | x6 |] %18
w: |||
w: |||
w: |||
w: |||
V:3
 [B,,F,][B,,F,] | [B,,B,]2 [B,,F,]2 [B,,B,]3 [D,B,] | [E,B,][E,B,][E,B,][G,B,] B,3 [B,D] | %3
 [G,C]2 [G,C][G,C] [C,G,]2 (CB,) | [F,A,]6 [F,A,][F,A,] | [B,,B,]2 [B,,F,]2 [B,,B,]3 [D,B,] | %6
 [E,B,][E,B,][E,B,][G,B,] B,2 [B,,B,][D,B,] | [E,B,] [E,B,]2 [C,E] [F,D]2 [F,C]2 | [B,,D]6 || %9
 B,B, | [F,C] [F,C]2 [F,A,] (A,B,)(CB,) | (A,2 B,2 C2) [F,D][F,E] | %12
 [B,F] [B,F]2 [A,E] [B,D]2 [D,B,]2 | ([F,A,]2 [G,B,]2 [A,C]2) B,B, | %14
 [B,,B,]2 [B,,F,][B,,F,] [B,,B,]3 [D,B,] | [E,B,]2 [D,=B,]2 [C,C]2 [D,C][E,_B,] | %16
 [F,B,] [G,B,]2 [E,B,] [F,B,]2 [F,A,]2 | [B,,B,]6 |] %18
V:4
 x2 | x8 | x4 B,3 x | x6 =E,2 | x8 | x8 | x4 B,2 x2 | x8 | x6 || B,B, | x4 F,2 F,2 | F,6 x2 | x8 | %13
 x6 B,B, | x8 | x8 | x8 | x6 |] %18

